X:2
T:blote'r gorllewin (flowers of the west)
O:traditional welsh
M:C
L:1/8
Q:1/4=90
K:Em
G/F/|E>GEG|EGFE|EAFE|D3E/F/|G3F/G/|A3G/A/|
BEGF/G/|E2-E:||
d|BGA/B/c/A/|BG2d|BGA/B/c/A/|BG2B/c/|
d-d/e/dc/B/|cAzB|d-d/e/dc/B/|cAzB|e2ed/c/|d2dc/B/|cBAG|BA2B|
d>edc|BABc|dGF/G/E/F/|D3E/F/|G3F/G/|A3G/A/|BEGF/G/|E3:||
